X: 28686
T: Mwynen Cynwyd
R: jig
M: 6/8
K: Gmajor
d|BGG G2 G|GBd dcB|eAA A2 A|cde edc|
BGG G2 G|GBd dcB|cBc Adc|BAB G2:|
|:z|e2g e2g|e2g eBe|d2g d2g|d2g dBd|
eAA A2 A|c2d edc|=fed edc|de=f edc:|

